Numix-GalliumOS/32/status/pamac-delete.svg

<?xml version="1.0" encoding="UTF-8" standalone="no"?>
<svg
   xmlns:dc="http://purl.org/dc/elements/1.1/"
   xmlns:cc="http://creativecommons.org/ns#"
   xmlns:rdf="http://www.w3.org/1999/02/22-rdf-syntax-ns#"
   xmlns:svg="http://www.w3.org/2000/svg"
   xmlns="http://www.w3.org/2000/svg"
   xmlns:sodipodi="http://sodipodi.sourceforge.net/DTD/sodipodi-0.dtd"
   xmlns:inkscape="http://www.inkscape.org/namespaces/inkscape"
   width="32"
   height="32"
   viewBox="0 0 32 32"
   id="svg2"
   version="1.1"
   inkscape:version="0.91 r"
   sodipodi:docname="pamac-template.svg">
  <metadata
     id="metadata10">
    <rdf:RDF>
      <cc:Work
         rdf:about="">
        <dc:format>image/svg+xml</dc:format>
        <dc:type
           rdf:resource="http://purl.org/dc/dcmitype/StillImage" />
        <dc:title></dc:title>
      </cc:Work>
    </rdf:RDF>
  </metadata>
  <defs
     id="defs8" />
  <sodipodi:namedview
     pagecolor="#ffffff"
     bordercolor="#666666"
     borderopacity="1"
     objecttolerance="10"
     gridtolerance="10"
     guidetolerance="10"
     inkscape:pageopacity="0"
     inkscape:pageshadow="2"
     inkscape:window-width="1366"
     inkscape:window-height="747"
     id="namedview6"
     showgrid="true"
     inkscape:zoom="4"
     inkscape:cx="-28.526734"
     inkscape:cy="15.484752"
     inkscape:window-x="0"
     inkscape:window-y="21"
     inkscape:window-maximized="1"
     inkscape:current-layer="svg2">
    <inkscape:grid
       type="xygrid"
       id="grid4138" />
  </sodipodi:namedview>
  <path
     style="fill:#c28e5c"
     d="m 10,5 -5,6 10,0 0,-6 z m 7,0 0,6 10,0 -5,-6 z m -12,8 0,14 13.193359,0 c -0.496696,-2.123303 0.06892,-4.453872 1.710938,-6.095703 1.26053,-1.260671 2.92831,-1.890625 4.595703,-1.890625 0.851587,0 1.702604,0.167264 2.5,0.496094 L 27,13 Z"
     id="path4"
     inkscape:connector-curvature="0"
     sodipodi:nodetypes="ccccccccccccccsccc" />
  <g
     id="g4147"
     transform="matrix(0.225,0,0,0.225,19.1,20.1)"
     style="fill:#ee545b;fill-opacity:1">
    <path
       style="fill:#ee545b;fill-opacity:1"
       d="M 24.5 21 C 23.348413 21 22.196826 21.439453 21.318359 22.318359 C 19.560547 24.075293 19.560547 26.924707 21.318359 28.681641 C 23.075293 30.439453 25.924707 30.439453 27.681641 28.681641 C 29.439453 26.924707 29.439453 24.075293 27.681641 22.318359 C 26.803174 21.439453 25.651587 21 24.5 21 z M 24.5 22.349609 C 25.091532 22.349609 25.681338 22.518374 26.197266 22.849609 L 21.849609 27.197266 C 21.066947 25.978199 21.206775 24.339338 22.273438 23.273438 C 22.888232 22.658203 23.693823 22.349609 24.5 22.349609 z M 27.150391 23.802734 C 27.933053 25.021801 27.793225 26.660662 26.726562 27.726562 C 25.660662 28.793225 24.021801 28.933053 22.802734 28.150391 L 27.150391 23.802734 z "
       transform="matrix(4.4444444,0,0,4.4444444,-84.888889,-89.333333)"
       id="path4137" />
  </g>
  <g
     id="g4147-5"
     transform="matrix(0.225,0,0,0.225,19.1,20.1)"
     style="fill:#ee545b;fill-opacity:1;stroke:#000000;stroke-opacity:1;stroke-width:17.77777778;stroke-miterlimit:4;stroke-dasharray:none" />
</svg>

<svg xmlns="http://www.w3.org/2000/svg" viewBox="0 0 32 32">
 <path d="m 10 5 -5 6 10 0 0 -6 z m 7 0 0 6 10 0 -5 -6 z m -12 8 0 14 13.193 0 c -0.497 -2.123 0.069 -4.454 1.711 -6.096 1.261 -1.261 2.928 -1.891 4.596 -1.891 0.852 0 1.703 0.167 2.5 0.496 l 0 -6.51" style="fill:#c28e5c"/>
 <g transform="matrix(0.225,0,0,0.225,19.1,20.1)" style="fill:#ee545b;fill-opacity:1">
  <path d="m 24.5 21 c -1.152 0 -2.303 0.439 -3.182 1.318 c -1.758 1.757 -1.758 4.606 0 6.363 c 1.757 1.758 4.606 1.758 6.363 0 c 1.758 -1.757 1.758 -4.606 0 -6.363 c -0.878 -0.879 -2.03 -1.318 -3.182 -1.318 z m 0 1.35 c 0.592 0 1.181 0.169 1.697 0.5 l -4.348 4.348 c -0.783 -1.219 -0.643 -2.858 0.424 -3.924 c 0.615 -0.615 1.42 -0.924 2.227 -0.924 z m 2.65 1.453 c 0.783 1.219 0.643 2.858 -0.424 3.924 c -1.066 1.067 -2.705 1.206 -3.924 0.424 l 4.348 -4.348 z" transform="matrix(4.4444444,0,0,4.4444444,-84.888889,-89.333333)"/>
 </g>
</svg>
